X: 98
T:Marriage March
M:6/8
L:1/8
R:Jig
Z:Steve Mansfield
K:G
DGB DGB | BAG A2F | DFA DFA | cBA B2G | DGB DGB | BAG A2F | 
DFA cAF | DEF G3 :: DGA d2^c | d2c A3 | DFA c2B | 
c2d B2G | DGA d2^c | d2c A3 | DFA cAF | DEF G3 :|
<end>
<start>
